!!!id: 18xx:695
!!!COM: Bułakowski, Stefan
!!!OTL: Msza As – Credo
!!!PDT:
!!!SMS-siglum: PL-CZ
!!!SMS-shelfmark: III-47
!!!NIFC-rismID: 300000053
!!!URL-scan: http://repozytorium.nifc.pl/skany/pl-cz-nut--iii-47
!!!ONB-nifc: UWAGA: części Mszy: Kyrie, Gloria, Justus ut palma, Credo, Et incarnatus, Et resurrexit, Veritas mea, Sanctus, Pleni, Benedictus, Agnus Dei, Dona nobis
!!!SMS-variant:
!!!SMS-altvar:
**kern	**text	**dynam	**kern	**text	**dynam	**kern	**text	**dynam	**kern	**dynam	**kern	**dynam	**kern	**dynam	**kern	**dynam	**kern	**dynam	**kern	**dynam	**kern	**dynam
*part10	*part10	*part10	*part9	*part9	*part9	*part8	*part8	*part8	*part7	*part7	*part6	*part6	*part5	*part5	*part4	*part4	*part3	*part3	*part2	*part2	*part1	*part1
*staff10	*staff10	*	*staff9	*staff9	*	*staff8	*staff8	*	*staff7	*	*staff6	*	*staff5	*	*staff4	*	*staff3	*	*staff2	*	*staff1	*
*I"Baſso	*	*	*I"Tenore 2.do	*	*	*I"Tenore 1mo	*	*	*I"Trombone	*	*I"Corno 2do in Es	*	*I"Corno 1mo in Es	*	*I"Fagotto 2do	*	*I"Fagotto 1mo	*	*I"Clarinetto 2do in B.	*	*I"Clarinetto 1mo in B.	*
*I'B	*	*	*I'T II	*	*	*I'T I	*	*	*I'trb	*	*I'cor II	*	*I'cor I	*	*I'fag II	*	*I'fag I	*	*I'cl II	*	*I'cl I	*
*group3	*	*	*group3	*	*	*group3	*	*	*group2	*	*group2	*	*group2	*	*group1	*	*group1	*	*group1	*	*group1	*
*clefF4	*	*	*clefC4	*	*	*clefC4	*	*	*clefF4	*	*clefG2	*	*clefG2	*	*clefF4	*	*clefF4	*	*clefG2	*	*clefG2	*
*	*	*	*	*	*	*	*	*	*	*	*ITrd5c9	*	*ITrd5c9	*	*	*	*	*	*ITrd1c2	*	*ITrd1c2	*
*k[b-e-a-]	*	*	*k[b-e-a-]	*	*	*k[b-e-a-]	*	*	*k[b-e-a-]	*	*k[b-e-a-]	*	*k[b-e-a-]	*	*k[b-e-a-]	*	*k[b-e-a-]	*	*k[b-e-a-]	*	*k[b-e-a-]	*
*M4/4	*	*	*M4/4	*	*	*M4/4	*	*	*M4/4	*	*M4/4	*	*M4/4	*	*M4/4	*	*M4/4	*	*M4/4	*	*M4/4	*
*met(c)	*	*	*met(c)	*	*	*met(c)	*	*	*met(c)	*	*met(c)	*	*met(c)	*	*met(c)	*	*met(c)	*	*met(c)	*	*met(c)	*
=1	=1	=1	=1	=1	=1	=1	=1	=1	=1	=1	=1	=1	=1	=1	=1	=1	=1	=1	=1	=1	=1	=1
*2\right	*	*	*2\right	*	*	*2\right	*	*	*2\right	*	*2\right	*	*2\right	*	*2\right	*	*2\right	*	*2\right	*	*2\right	*
!LO:TX:a:t=Credo	!	!LO:DY:b	!LO:TX:a:t=Allegro.	!	!	!LO:TX:a:t=Credo	!	!LO:DY:b	!LO:TX:a:t=Credo	!LO:DY:b	!LO:TX:a:t=Credo	!LO:DY:b	!LO:TX:a:t=Credo	!LO:DY:b	!LO:TX:a:t=Credo	!LO:DY:b	!LO:TX:a:t=Credo	!LO:DY:b	!LO:TX:a:t=Credo	!LO:DY:b	!LO:TX:a:t=Credo	!
!LO:TX:a:t=Allegro	!	!	!LO:TX:a:t=Credo	!	!LO:DY:b	!LO:TX:a:t=Allegro.	!	!	!LO:TX:a:t=Allegro	!	!LO:TX:a:t=Allegro in Es.	!	!LO:TX:a:t=Allegro in Es.	!	!LO:TX:a:t=Allegro.	!	!LO:TX:a:t=Allegro.	!	!LO:TX:a:t=Allegro	!	!LO:TX:a:t=Allegro	!LO:DY:b
(2e-\	Cre-	f	(2e-\	Cre-	f	(2e-\	Cre-	f	2E-\	f	2E-/	f	2e-\	f	2E-\	f	2e-\	f	2ee-\	f	2ee-\	f
4d\)	.	.	4d\)	.	.	4d\)	.	.	4D\	.	4r	.	4r	.	4D\	.	4d\	.	4dd\	.	4dd\	.
4e-\	-do	.	4e-\	-do	.	4e-\	-do	.	4E-\	.	4E-/	.	4e-\	.	4E-\	.	4e-\	.	4ee-\	.	4ee-\	.
=2	=2	=2	=2	=2	=2	=2	=2	=2	=2	=2	=2	=2	=2	=2	=2	=2	=2	=2	=2	=2	=2	=2
2c\	in	.	2c\	in	.	2c\	in	.	2C/	.	2c/	.	2c/	.	2C/	.	2c\	.	2cc\	.	2cc\	.
4Bn\	u-	.	4Bn\	u-	.	4Bn\	u-	.	4BBn/	.	4r	.	4r	.	4BBn/	.	4Bn\	.	4bX\	.	4bX\	.
4c\	-num	.	4c\	-num	.	4c\	-num	.	4C/	.	4c/	.	4c/	.	4C/	.	4c\	.	4cc\	.	4cc\	.
!	!	!	!LO:LB:g=original	!	!	!	!	!	!	!	!	!	!	!	!	!	!	!	!	!	!	!
=3	=3	=3	=3	=3	=3	=3	=3	=3	=3	=3	=3	=3	=3	=3	=3	=3	=3	=3	=3	=3	=3	=3
4F\	in	.	4F/	in	.	4F/	in	.	4AA-/	.	2r	.	2r	.	4A-\	.	4A-\	.	4f/	.	4f/	.
8BB-/	u-	.	8G/	u-	.	8G/	u-	.	4r	.	.	.	.	.	8G\L	.	8G\L	.	4r	.	8g/L	.
8BB-/	-num	.	8G/	-num	.	8G/	-num	.	.	.	.	.	.	.	8G\J	.	8G\J	.	.	.	8g/J	.
[4BB-/	De-	.	(4F/	De-	.	(4A-\	De-	.	4r	.	4B-/	.	4f\	.	4F\	.	4F\	.	4a-\	.	4a-\	.
4BB-/]	.	.	4D/)	.	.	4B-\)	.	.	4BB-/	.	4B-/	.	4f\	.	4BB-/	.	4BB-/	.	4a-\	.	4b-\	.
!LO:LB:g=original	!	!	!	!	!	!LO:LB:g=original	!	!	!	!	!	!	!	!	!	!	!	!	!	!	!	!
=4	=4	=4	=4	=4	=4	=4	=4	=4	=4	=4	=4	=4	=4	=4	=4	=4	=4	=4	=4	=4	=4	=4
4E-\	-um	.	4E-/	-um	.	4G/	-um	.	4E-\	.	4G/	.	4e-\	.	4E-\	.	4E-\	.	4g\	.	4g\	.
4r	.	.	4r	.	.	4r	.	.	4r	.	4r	.	4r	.	4r	.	4r	.	8r	.	8r	.
.	.	.	.	.	.	.	.	.	.	.	.	.	.	.	.	.	.	.	8e-/	.	8ee-\	.
2r	.	.	2r	.	.	2r	.	.	2r	.	2r	.	2r	.	2r	.	2r	.	8d/L	.	8dd\L	.
.	.	.	.	.	.	.	.	.	.	.	.	.	.	.	.	.	.	.	8e-/	.	8ee-\	.
.	.	.	.	.	.	.	.	.	.	.	.	.	.	.	.	.	.	.	8g/	.	8gg\	.
.	.	.	.	.	.	.	.	.	.	.	.	.	.	.	.	.	.	.	8b-/J	.	8bb-\J	.
!	!	!	!	!	!	!	!	!	!LO:LB:g=original	!	!	!	!	!	!	!	!	!	!	!	!	!
=5	=5	=5	=5	=5	=5	=5	=5	=5	=5	=5	=5	=5	=5	=5	=5	=5	=5	=5	=5	=5	=5	=5
4e-\	Pa-	.	4e-\	Pa-	.	4e-\	Pa-	.	4E-\	.	2e-\	.	2e-\	.	4E-\	.	4e-\	.	4ee-\	.	4ee-\	.
!	!	!	!	!	!	!	!	!	!	!	!	!	!	!	!	!	!LO:N:vis=8.	!	!	!	!	!
8e-\	-trem	.	8e-\	-trem	.	8e-\	-trem	.	8E-\L	.	.	.	.	.	8E-\L	.	8e-\L	.	8ee-\L	.	8ee-\L	.
8e-\	o-	.	8e-\	o-	.	8e-\	o-	.	8E-\J	.	.	.	.	.	8E-\J	.	8e-\J	.	8ee-\J	.	8ee-\J	.
4d\	-mni-	.	4d\	-mni-	.	4d\	-mni-	.	4D\	.	4r	.	4r	.	4D\	.	4d\	.	4dd\	.	4dd\	.
4e-\	-po-	.	4e-\	-po-	.	4e-\	-po-	.	4E-\	.	4e-\	.	4e-\	.	4E-\	.	4e-\	.	4ee-\	.	4ee-\	.
!	!	!	!	!	!	!	!	!	!	!	!	!	!	!	!LO:LB:g=original	!	!LO:LB:g=original	!	!LO:LB:g=original	!	!LO:LB:g=original	!
=6	=6	=6	=6	=6	=6	=6	=6	=6	=6	=6	=6	=6	=6	=6	=6	=6	=6	=6	=6	=6	=6	=6
4c\	-ten-	.	4c\	-ten-	.	4c\	-ten-	.	4C/	.	2c/	.	2c/	.	4C/	.	4c\	.	4cc\	.	4cc\	.
8c\	-tem	.	8c\	-tem	.	8c\	-tem	.	8C/L	.	.	.	.	.	8C/L	.	8c\L	.	8cc\L	.	8cc\L	.
8c\	fa-	.	8c\	fa-	.	8c\	fa-	.	8C/J	.	.	.	.	.	8C/J	.	8c\J	.	8cc\J	.	8cc\J	.
4Bn\	-cto-	.	4Bn\	-cto-	.	4Bn\	-cto-	.	4BBn/	.	4r	.	4r	.	4BBn/	.	4Bn\	.	4bX\	.	4bX\	.
4c\	-rem	.	4c\	-rem	.	4c\	-rem	.	4C/	.	4c/	.	4c/	.	4C/	.	4c\	.	4cc\	.	4cc\	.
!LO:LB:g=original	!	!	!LO:LB:g=original	!	!	!	!	!	!	!	!LO:LB:g=original	!	!LO:LB:g=original	!	!	!	!	!	!	!	!	!
=7	=7	=7	=7	=7	=7	=7	=7	=7	=7	=7	=7	=7	=7	=7	=7	=7	=7	=7	=7	=7	=7	=7
(8A-\L	Cae-	.	(8F\L	cae-	.	(8F\L	Cae-	.	4AA-/	.	2r	.	2r	.	4AA-/	.	4A-\	.	8f\L	.	8f\L	.
8F\J)	.	.	8G\J)	.	.	8G\J)	.	.	.	.	.	.	.	.	.	.	.	.	8g\	.	8g\	.
8F\	-li	.	8A-\	-li	.	8A-\	-li	.	4r	.	.	.	.	.	4r	.	4r	.	8a-\	.	8a-\	.
8F\	et	.	8c\	et	.	8c\	et	.	.	.	.	.	.	.	.	.	.	.	8cc\J	.	8cc\J	.
[4BB-/	ter-	.	(4B-\	ter-	.	(4B-\	ter-	.	4BB-/	.	4B-/	.	4f\	.	4BB-/	.	4D\	.	4b-\	.	4b-\	.
4BB-/]	.	.	4A-\)	.	.	4d\)	.	.	4BB-/	.	4B-/	.	4f\	.	4BB-/	.	4F\	.	4a-\	.	4dd\	.
!	!	!	!	!	!	!LO:LB:g=original	!	!	!	!	!	!	!	!	!	!	!	!	!	!	!	!
=8	=8	=8	=8	=8	=8	=8	=8	=8	=8	=8	=8	=8	=8	=8	=8	=8	=8	=8	=8	=8	=8	=8
!	!	!	!LO:SIC:l:s=-rae:v	!	!	!LO:SIC:l:s=-rae:v	!	!	!	!	!	!	!	!	!	!	!	!	!	!	!	!
4E-\	-rae	.	4G/	-ra	.	4e-\	-re	.	4E-\	.	4G/	.	4e-\	.	4E-\	.	4E-\	.	4g\	.	4ee-\	.
4r	.	.	4r	.	.	4r	.	.	4r	.	4r	.	4r	.	4r	.	4r	.	8r	.	8r	.
.	.	.	.	.	.	.	.	.	.	.	.	.	.	.	.	.	.	.	8g\	.	8gg\	.
2r	.	.	2r	.	.	2r	.	.	2r	.	2r	.	2r	.	2r	.	2r	.	8f/L	.	8ff\L	.
.	.	.	.	.	.	.	.	.	.	.	.	.	.	.	.	.	.	.	8e-/	.	8ee-\	.
.	.	.	.	.	.	.	.	.	.	.	.	.	.	.	.	.	.	.	8d/	.	8dd\	.
.	.	.	.	.	.	.	.	.	.	.	.	.	.	.	.	.	.	.	8c/J	.	8cc\J	.
=9	=9	=9	=9	=9	=9	=9	=9	=9	=9	=9	=9	=9	=9	=9	=9	=9	=9	=9	=9	=9	=9	=9
!	!	!	!	!	!	!	!	!LO:DY:a:t=p.	!	!	!	!	!	!	!	!	!	!	!	!	!	!
4D\	Vi-	.	4A-\	vi-	.	4B-\	vi-	p	4BB-/	.	4r	.	4r	.	4r	.	4r	.	4B-/	.	4b-\	.
4F\	-si-	.	4A-\	-si-	.	4B-\	-si-	.	4r	.	4B-/	.	4f\	.	4B-\	.	4d\	.	4a-\	.	4b-\	.
4BB-/	-bi-	.	4A-\	-bi-	.	4B-\	-bi-	.	2r	.	4B-/	.	4f\	.	4B-\	.	4d\	.	4a-\	.	4b-\	.
4B-\	-li-	.	4A-\	-li-	.	(8c\L	-li-	.	.	.	4B-/	.	4f\	.	4B-\	.	4d\	.	4a-\	.	8cc\L	.
.	.	.	.	.	.	8d\J)	.	.	.	.	.	.	.	.	.	.	.	.	.	.	8dd\J	.
=10	=10	=10	=10	=10	=10	=10	=10	=10	=10	=10	=10	=10	=10	=10	=10	=10	=10	=10	=10	=10	=10	=10
4E-\	-um	.	4G/	-um	.	4e-\	-um	.	4E-\	.	4G/	.	4e-\	.	4E-\	.	4e-\	.	4g/	.	4ee-\	.
4r	.	.	4r	.	.	4r	.	.	4r	.	4r	.	4r	.	4r	.	4r	.	8r	.	8r	.
.	.	.	.	.	.	.	.	.	.	.	.	.	.	.	.	.	.	.	8g/	.	8gg\	.
2r	.	.	2r	.	.	2r	.	.	2r	.	2r	.	2r	.	2r	.	2r	.	8f/L	.	8ff\L	.
.	.	.	.	.	.	.	.	.	.	.	.	.	.	.	.	.	.	.	8e-/	.	8ee-\	.
.	.	.	.	.	.	.	.	.	.	.	.	.	.	.	.	.	.	.	8d/	.	8dd\	.
.	.	.	.	.	.	.	.	.	.	.	.	.	.	.	.	.	.	.	8c/J	.	8cc\J	.
!LO:LB:g=original	!	!	!LO:LB:g=original	!	!	!	!	!	!LO:LB:g=original	!	!	!	!	!	!	!	!	!	!	!	!	!
=11	=11	=11	=11	=11	=11	=11	=11	=11	=11	=11	=11	=11	=11	=11	=11	=11	=11	=11	=11	=11	=11	=11
4r	.	.	4r	.	.	4r	.	.	4BB-/	.	4r	.	4r	.	4r	.	4r	.	4B-/	.	4b-\	.
(4F\	O-	.	[4A-\	O-	.	(4B-\	O-	.	4r	.	8B-/L	.	8f\L	.	8B-\L	.	8d\L	.	8a-\L	.	8b-\L	.
.	.	.	.	.	.	.	.	.	.	.	8B-/J	.	8f\J	.	8B-\J	.	8d\J	.	8a-\J	.	8b-\J	.
4BB-/)	.	.	4A-\]	.	.	4c\)	.	.	2r	.	4B-/	.	4f\	.	4B-\	.	4d\	.	4a-\	.	4cc\	.
4B-\	-mni-	.	4A-\	-mni-	.	4d\	-mni-	.	.	.	4B-/	.	4f\	.	4B-\	.	4B-\	.	4a-\	.	4dd\	.
!	!	!	!	!	!	!LO:LB:g=original	!	!	!	!	!	!	!	!	!	!	!	!	!LO:LB:g=original	!	!LO:LB:g=original	!
=12	=12	=12	=12	=12	=12	=12	=12	=12	=12	=12	=12	=12	=12	=12	=12	=12	=12	=12	=12	=12	=12	=12
4E-\	-um	.	4G\	-um	.	4e-\	-um	.	4E-\	.	4G/	.	4e-\	.	4E-\	.	4e-\	.	4g\	.	4ee-\	.
8B-\	et	.	8B-\	et	.	8B-\	et	.	4B-\	.	4B-/	.	4B-/	.	4B-\	.	4B-\	.	4b-\	.	4b-\	.
8B-\	in	.	8B-\	in	.	8B-\	in	.	.	.	.	.	.	.	.	.	.	.	.	.	.	.
8G\	vi-	.	8G\	vi-	.	8G\	vi-	.	4G\	.	4G/	.	4G/	.	4G\	.	4G\	.	4g\	.	4g/	.
8G\	-si-	.	8G\	-si-	.	8G\	-si-	.	.	.	.	.	.	.	.	.	.	.	.	.	.	.
8B-\	-bi-	.	8B-\	-bi-	.	8B-\	-bi-	.	4B-\	.	4B-/	.	4B-/	.	4B-\	.	4B-\	.	4b-\	.	4b-\	.
8B-\	-li-	.	8B-\	-li-	.	8B-\	-li-	.	.	.	.	.	.	.	.	.	.	.	.	.	.	.
!	!	!	!	!	!	!	!	!	!	!	!	!	!	!	!LO:LB:g=original	!	!LO:LB:g=original	!	!	!	!	!
=13	=13	=13	=13	=13	=13	=13	=13	=13	=13	=13	=13	=13	=13	=13	=13	=13	=13	=13	=13	=13	=13	=13
4e-\	-um	.	4E-/	-um	.	4e-\	-um	.	4E-\	.	4E-/	.	4e-\	.	4E-\	.	4E-\	.	4e-/	.	4ee-\	.
4r	.	.	4r	.	.	4r	.	.	4r	.	4r	.	4r	.	4r	.	4r	.	4r	.	4r	.
!LO:TX:a:t=P:problem:p=p.	!	!LO:DY:a:t=p.	!	!	!LO:DY:a:t=p.	!	!	!LO:DY:b	!	!	!	!	!	!	!	!	!	!	!	!	!	!
4E-\	Cre-	p	4E-/	Cre-	p	4E-/	Cre-	p	2r	.	2r	.	2r	.	2r	.	2r	.	2r	.	2r	.
4E-\	-do	.	4E-/	-do	.	4E-/	-do	.	.	.	.	.	.	.	.	.	.	.	.	.	.	.
!LO:LB:g=original	!	!	!LO:LB:g=original	!	!	!	!	!	!	!	!LO:LB:g=original	!	!	!	!	!	!	!	!	!	!	!
=14	=14	=14	=14	=14	=14	=14	=14	=14	=14	=14	=14	=14	=14	=14	=14	=14	=14	=14	=14	=14	=14	=14
!	!	!	!	!	!	!	!	!	!LO:TX:a:t=4	!	!LO:TX:a:t=4.	!	!	!LO:DY:b:t=p.	!	!	!	!	!	!LO:DY:b	!	!LO:DY:b:t=p.
4D-X\	Cre-	.	4E-/	Cre-	.	4G\	Cre-	.	00r	.	00r	.	4e-\	p	4D-X\	.	4d-X\	.	4g\	p	8r	p
.	.	.	.	.	.	.	.	.	.	.	.	.	.	.	.	.	.	.	.	.	(8ee-\L	.
8D-\	-do	.	8E-/	-do	.	8G\	-do	.	.	.	.	.	4e-\	.	4D-\	.	4d-\	.	8g\L	.	8ff\	.
8D-\	in	.	8E-/	in	.	8A-\	in	.	.	.	.	.	.	.	.	.	.	.	8a-\J	.	8ee-\J)	.
4D-\	u-	.	4E-/	u-	.	4B-\	u-	.	.	.	.	.	4e-\	.	4D-\	.	4d-\	.	4b-\	.	8r	.
.	.	.	.	.	.	.	.	.	.	.	.	.	.	.	.	.	.	.	.	.	(8ee-\L	.
4D-\	-num	.	4E-/	-num	.	4G\	-num	.	.	.	.	.	4e-\	.	4D-\	.	4d-\	.	4g\	.	8ff\	.
.	.	.	.	.	.	.	.	.	.	.	.	.	.	.	.	.	.	.	.	.	8ee-\J)	.
!	!	!	!	!	!	!LO:LB:g=original	!	!	!	!	!	!	!LO:LB:g=original	!	!	!	!	!	!	!	!	!
=15	=15	=15	=15	=15	=15	=15	=15	=15	=15	=15	=15	=15	=15	=15	=15	=15	=15	=15	=15	=15	=15	=15
4.C/	Do-	.	4.E-/	Do-	.	4.A-\	Do-	.	.	.	.	.	4.e-\	.	4.C/	.	4.c\	.	4.a-\	.	8r	.
.	.	.	.	.	.	.	.	.	.	.	.	.	.	.	.	.	.	.	.	.	(8ee-\L	.
.	.	.	.	.	.	.	.	.	.	.	.	.	.	.	.	.	.	.	.	.	8ff\	.
8BB-/	-mi-	.	8E-/	-mi-	.	8B-\	-mi-	.	.	.	.	.	8e-\	.	8BB-/	.	8B-\	.	8b-\	.	8ee-\J)	.
4AA-/	-num	.	4E-/	-num	.	4c\	-num	.	.	.	.	.	4e-\	.	4AA-/	.	4A-\	.	4cc\	.	(8ddn\L	.
.	.	.	.	.	.	.	.	.	.	.	.	.	.	.	.	.	.	.	.	.	8ee-\	.
4r	.	.	4r	.	.	4r	.	.	.	.	.	.	4r	.	4r	.	4r	.	4r	.	8cc\	.
.	.	.	.	.	.	.	.	.	.	.	.	.	.	.	.	.	.	.	.	.	8a-\J)	.
=16	=16	=16	=16	=16	=16	=16	=16	=16	=16	=16	=16	=16	=16	=16	=16	=16	=16	=16	=16	=16	=16	=16
4E-\	Je-	.	4F/	Je-	.	4An\	Je-	.	.	.	.	.	4f\	.	4E-\	.	4e-\	.	4a\	.	8r	.
.	.	.	.	.	.	.	.	.	.	.	.	.	.	.	.	.	.	.	.	.	(8ff\L	.
4E-\	-sum	.	4F/	-sum	.	(8A\L	-sum	.	.	.	.	.	4f\	.	4E-\	.	4e-\	.	8a\L	.	8gg\	.
.	.	.	.	.	.	8B-\J)	.	.	.	.	.	.	.	.	.	.	.	.	8b-\J	.	8ff\J)	.
4E-\	Chri-	.	4F/	Chri-	.	4c\	Chri-	.	.	.	.	.	4f\	.	4E-\	.	4e-\	.	4cc\	.	8r	.
.	.	.	.	.	.	.	.	.	.	.	.	.	.	.	.	.	.	.	.	.	(8ff\L	.
4E-\	-stum	.	4F/	-stum	.	4A\	-stum	.	.	.	.	.	4f\	.	4E-\	.	4e-\	.	4a\	.	8gg\	.
.	.	.	.	.	.	.	.	.	.	.	.	.	.	.	.	.	.	.	.	.	8ff\J)	.
!LO:LB:g=original	!	!	!	!	!	!	!	!	!	!	!	!	!	!	!	!	!	!	!	!	!	!
=17	=17	=17	=17	=17	=17	=17	=17	=17	=17	=17	=17	=17	=17	=17	=17	=17	=17	=17	=17	=17	=17	=17
4.D\	fi-	.	4.F/	fi-	.	4.B-\	fi-	.	.	.	.	.	4.f\	.	4.Dn\	.	4.dn\	.	4.b-\	.	8r	.
.	.	.	.	.	.	.	.	.	.	.	.	.	.	.	.	.	.	.	.	.	(8ff\L	.
.	.	.	.	.	.	.	.	.	.	.	.	.	.	.	.	.	.	.	.	.	8gg\	.
8C/	-li-	.	8F/	-li-	.	8c\	-li-	.	.	.	.	.	8f\	.	8C/	.	8c\	.	8cc\	.	8ff\J)	.
4BB-/	-um	.	4F/	-um	.	4d\	-um	.	.	.	.	.	4f\	.	4BB-/	.	4B-\	.	4b-\	.	(8eeX\L	.
.	.	.	.	.	.	.	.	.	.	.	.	.	.	.	.	.	.	.	.	.	8ff\	.
!	!	!LO:DY:b:t=fo	!	!	!	!	!	!LO:DY:b	!	!	!	!	!	!	!	!	!	!	!	!	!	!
4r	.	f	4r	.	.	4r	.	f	.	.	.	.	4r	.	4r	.	4r	.	4r	.	8dd\	.
.	.	.	.	.	.	.	.	.	.	.	.	.	.	.	.	.	.	.	.	.	8b-\J)	.
!	!	!	!LO:LB:g=original	!	!	!	!	!	!	!	!	!	!	!	!	!	!	!	!	!	!LO:LB:g=original	!
=18	=18	=18	=18	=18	=18	=18	=18	=18	=18	=18	=18	=18	=18	=18	=18	=18	=18	=18	=18	=18	=18	=18
!	!	!	!	!	!LO:DY:b	!	!	!	!	!LO:DY:b	!	!	!	!	!	!	!	!	!	!	!	!
4A-\	Je-	.	4B-\	Je-	f	4d\	Je-	.	4AA-/	f	4B-/	.	4f\	.	4A-\	.	4A-\	.	4dd\	.	8r	.
.	.	.	.	.	.	.	.	.	.	.	.	.	.	.	.	.	.	.	.	.	(8bb-\L	.
4A-\	-sum	.	4B-\	-sum	.	(8d\L	-sum	.	4r	.	8B-/L	.	8f\L	.	8A-\L	.	8A-\L	.	8dd\L	.	8ccc\	.
.	.	.	.	.	.	8e-\J)	.	.	.	.	8B-/J	.	8f\J	.	8A-\J	.	8A-\J	.	8ee-\J	.	8bb-\J)	.
[4A-\	Chri-	.	4B-\	Chri-	.	4f\	Chri-	.	4AA-/	.	4B-/	.	4f\	.	4A-\	.	4A-\	.	4ff\	.	8r	.
.	.	.	.	.	.	.	.	.	.	.	.	.	.	.	.	.	.	.	.	.	(8bb-\L	.
4A-\]	.	.	4B-\	-stum	.	4d\	-stum	.	4r	.	4B-/	.	4f\	.	4A-\	.	4A-\	.	4dd\	.	8ccc\	.
.	.	.	.	.	.	.	.	.	.	.	.	.	.	.	.	.	.	.	.	.	8bb-\J)	.
!	!	!	!	!	!	!LO:LB:g=original	!	!	!	!	!	!	!	!	!	!	!	!	!LO:LB:g=original	!	!	!
=19	=19	=19	=19	=19	=19	=19	=19	=19	=19	=19	=19	=19	=19	=19	=19	=19	=19	=19	=19	=19	=19	=19
4G\	-stum	.	4G\	fi-	.	4e-\	fi-	.	4GG/	.	4e-\	.	4e-\	.	4G\	.	4G\	.	4cc\	.	4ee-\	.
4r	.	.	8B-\	-li-	.	8d\	-li-	.	4r	.	4r	.	4r	.	4r	.	4r	.	8b-\L	.	8dd\L	.
.	.	.	8A-\	-um	.	8c\	-um	.	.	.	.	.	.	.	.	.	.	.	8a-X\J	.	8cc\J	.
2r	.	.	8G#X\	de-	.	8Bn\	de-	.	2AA-/	.	2e-\	.	2f^\	.	2A-^\	.	2c\	.	8g/L	.	(8bX\L	.
.	.	.	8A-\	-i	.	8c\	-i	.	.	.	.	.	.	.	.	.	.	.	8a-/	.	8cc\)	.
.	.	.	8F/	u-	.	8A-\	u-	.	.	.	.	.	.	.	.	.	.	.	8f/	.	8a-\	.
.	.	.	8C/	-ni	.	8F/	-ni	.	.	.	.	.	.	.	.	.	.	.	8c/J	.	8f\J	.
!	!	!	!	!	!	!	!	!	!	!	!	!	!	!	!LO:LB:g=original	!	!	!	!	!	!	!
=20	=20	=20	=20	=20	=20	=20	=20	=20	=20	=20	=20	=20	=20	=20	=20	=20	=20	=20	=20	=20	=20	=20
2BB-/	ge-	.	2BB-/	ge-	.	2B-\	ge-	.	2BB-/	.	2e-\	.	2g\	.	2B-\	.	2B-\	.	2B-/	.	8r	.
.	.	.	.	.	.	.	.	.	.	.	.	.	.	.	.	.	.	.	.	.	(8b-\L	.
.	.	.	.	.	.	.	.	.	.	.	.	.	.	.	.	.	.	.	.	.	8cc\	.
.	.	.	.	.	.	.	.	.	.	.	.	.	.	.	.	.	.	.	.	.	8b-\J)	.
2B-\	-ni-	.	2A-\	-ni-	.	2d\	-ni-	.	2BB-/	.	2B-/	.	2f\	.	2BB-/	.	2A-\	.	2a-\	.	8r	.
.	.	.	.	.	.	.	.	.	.	.	.	.	.	.	.	.	.	.	.	.	(8aa-\L	.
.	.	.	.	.	.	.	.	.	.	.	.	.	.	.	.	.	.	.	.	.	8ff\	.
.	.	.	.	.	.	.	.	.	.	.	.	.	.	.	.	.	.	.	.	.	8dd\J)	.
!LO:LB:g=original	!	!	!	!	!	!	!	!	!LO:LB:g=original	!	!	!	!	!	!	!	!LO:LB:g=original	!	!	!	!	!
=21	=21	=21	=21	=21	=21	=21	=21	=21	=21	=21	=21	=21	=21	=21	=21	=21	=21	=21	=21	=21	=21	=21
4E-\	-tum	.	4G\	-tum	.	4e-\	-tum	.	4E-\	.	4G/	.	4e-\	.	4E-\	.	4G\	.	4g\	.	4ee-\	.
4r	.	.	4r	.	.	4r	.	.	4r	.	4r	.	4r	.	4r	.	4r	.	8r	.	8r	.
.	.	.	.	.	.	.	.	.	.	.	.	.	.	.	.	.	.	.	8E-/	.	8e-/	.
2r	.	.	2r	.	.	2r	.	.	2r	.	2r	.	2r	.	2r	.	2r	.	8G/L	.	8g\L	.
.	.	.	.	.	.	.	.	.	.	.	.	.	.	.	.	.	.	.	8B-/	.	8b-\	.
.	.	.	.	.	.	.	.	.	.	.	.	.	.	.	.	.	.	.	8e-/	.	8ee-\	.
.	.	.	.	.	.	.	.	.	.	.	.	.	.	.	.	.	.	.	8g/J	.	8gg\J	.
!	!	!	!LO:LB:g=original	!	!	!	!	!	!	!	!	!	!LO:LB:g=original	!	!	!	!	!	!	!	!	!
=22	=22	=22	=22	=22	=22	=22	=22	=22	=22	=22	=22	=22	=22	=22	=22	=22	=22	=22	=22	=22	=22	=22
4r	.	.	4r	.	.	4r	.	.	4r	.	4r	.	4r	.	4r	.	4r	.	4b-\	.	4bb-\	.
4BB-/	Qui	.	4A-\	Qui	.	4d\	Qui	.	4BB-/	.	4B-/	.	4f\	.	4BB-\	.	4B-\	.	4a-\	.	4dd\	.
4E-\	pro-	.	4G/	pro-	.	4e-\	pro-	.	4E-\	.	4G/	.	4e-\	.	4E-\	.	4B-\	.	4g\	.	4ee-\	.
4BB-/	-pter	.	4A-\	-pter	.	4d\	-pter	.	4BB-/	.	4B-/	.	4f\	.	4BB-\	.	4B-\	.	4a-\	.	4dd\	.
!	!	!	!	!	!	!LO:LB:g=original	!	!	!	!	!	!	!	!	!	!	!	!	!	!	!	!
=23	=23	=23	=23	=23	=23	=23	=23	=23	=23	=23	=23	=23	=23	=23	=23	=23	=23	=23	=23	=23	=23	=23
4E-\	nos-	.	4G/	no-	.	4e-\	no-	.	4E-\	.	4G/	.	4e-\	.	4E-\	.	4B-\	.	4g\	.	4ee-\	.
8E-\	-tram	.	8G/	-stram	.	8e-\	-stram	.	4r	.	4r	.	4r	.	4r	.	4r	.	8r	.	8r	.
8r	.	.	8r	.	.	8r	.	.	.	.	.	.	.	.	.	.	.	.	8E-/	.	8e-/	.
2r	.	.	2r	.	.	2r	.	.	2r	.	2r	.	2r	.	2r	.	2r	.	8G/L	.	8g\L	.
.	.	.	.	.	.	.	.	.	.	.	.	.	.	.	.	.	.	.	8B-/	.	8b-\	.
.	.	.	.	.	.	.	.	.	.	.	.	.	.	.	.	.	.	.	8e-/	.	8ee-\	.
.	.	.	.	.	.	.	.	.	.	.	.	.	.	.	.	.	.	.	8g/J	.	8gg\J	.
!	!	!	!	!	!	!	!	!	!	!	!	!	!	!	!	!	!	!	!	!	!LO:LB:g=original	!
=24	=24	=24	=24	=24	=24	=24	=24	=24	=24	=24	=24	=24	=24	=24	=24	=24	=24	=24	=24	=24	=24	=24
4r	.	.	4r	.	.	4r	.	.	4r	.	4r	.	4r	.	4r	.	4r	.	4b-\	.	4bb-\	.
4BB-/	nos-	.	4A-\	no-	.	4d\	no-	.	4BB-/	.	4B-/	.	4f\	.	4BB-\	.	4B-\	.	4a-\	.	4dd\	.
4E-\	-tram	.	4G\	-stram	.	4e-\	-stram	.	4E-\	.	4G/	.	4e-\	.	4E-\	.	4B-\	.	4g\	.	4ee-\	.
4BB-/	sa-	.	4A-\	sa-	.	4d\	sa-	.	4BB-/	.	4B-/	.	4f\	.	4BB-\	.	4B-\	.	4a-\	.	4dd\	.
!LO:LB:g=original	!	!	!	!	!	!	!	!	!	!	!LO:LB:g=original	!	!	!	!	!	!	!	!	!	!	!
=25	=25	=25	=25	=25	=25	=25	=25	=25	=25	=25	=25	=25	=25	=25	=25	=25	=25	=25	=25	=25	=25	=25
4E-\	-lu-	.	4G/	-lu-	.	4e-\	-lu-	.	4E-\	.	4G/	.	4e-\	.	4E-\	.	4B-\	.	4g\	.	4ee-\	.
4E-\	-tem	.	4G/	-tem	.	4e-\	-tem	.	4E-\	.	4G/	.	4e-\	.	4E-\	.	4B-\	.	4g\	.	4ee-\	.
4r	.	.	4r	.	.	4r	.	.	4r	.	4r	.	4r	.	4r	.	4r	.	4r	.	4r	.
!	!	!LO:DY:b	!	!	!LO:DY:a:t=fo.	!	!	!LO:DY:b	!	!LO:DY:b	!	!LO:DY:b	!	!LO:DY:b	!	!LO:DY:b	!	!	!	!	!	!LO:DY:b
4B-\	de-	ff	4B-\	de-	f	4B-\	de-	ff	4BB-/	ff	4B-/	ff	4B-/	ff	4BB-/	ff	4B-\	.	4b-\	.	4b-\	ff
!	!	!	!LO:LB:g=original	!	!	!	!	!	!	!	!	!	!	!	!	!	!	!	!LO:LB:g=original	!	!	!
=26	=26	=26	=26	=26	=26	=26	=26	=26	=26	=26	=26	=26	=26	=26	=26	=26	=26	=26	=26	=26	=26	=26
!	!	!	!	!	!LO:DY:b	!	!	!	!	!	!	!	!	!	!	!	!	!LO:DY:b	!	!LO:DY:b	!	!LO:DY:b
2e-\	-scen-	.	2e-\	-scen-	ff	2e-\	-scen-	.	2E-\	.	2e-\	.	2e-\	.	2E-\	.	2e-\	ff	2ee-\	ff	2ee-\	ff
(8e-\L	-dit	.	(8e-\L	-dit	.	(8d\L	-dit	.	2r	.	2r	.	2r	.	8E-\L	.	8e-\L	.	8ee-\L	.	8ee-\L	.
8d\J)	.	.	8d\J)	.	.	8c\J)	.	.	.	.	.	.	.	.	8D\	.	8d\	.	8dd\	.	8dd\	.
(8c\L	de-	.	(8c\L	de-	.	(8B-\L	de-	.	.	.	.	.	.	.	8C\	.	8c\	.	8cc\	.	8cc\	.
8Bn\J)	.	.	8Bn\J)	.	.	8An\J)	.	.	.	.	.	.	.	.	8BBn\J	.	8Bn\J	.	8bX\J	.	8bX\J	.
!	!	!	!	!	!	!LO:LB:g=original	!	!	!LO:LB:g=original	!	!	!	!	!	!LO:LB:g=original	!	!	!	!	!	!	!
=27	=27	=27	=27	=27	=27	=27	=27	=27	=27	=27	=27	=27	=27	=27	=27	=27	=27	=27	=27	=27	=27	=27
2c\	-scen-	.	2c\	-scen-	.	2c\	-scen-	.	2C/	.	2c/	.	2c/	.	2C/	.	2c\	.	2cc\	.	2cc\	.
(8c\L	-dit	.	(8c\L	-dit	.	(8c\L	-dit	.	2r	.	2r	.	2r	.	8C/L	.	8c\L	.	8cc\L	.	8cc\L	.
8B-X\J)	.	.	8B-X\J)	.	.	8B-X\J)	.	.	.	.	.	.	.	.	8BB-X/	.	8B-X\	.	8b-\	.	8b-\	.
(8A-\L	de-	.	(8A-\L	de-	.	(8A-\L	de-	.	.	.	.	.	.	.	8AA-/	.	8A-\	.	8a-\	.	8a-\	.
8G\J)	.	.	8G\J)	.	.	8G\J)	.	.	.	.	.	.	.	.	8GG/J	.	8G\J	.	8g\J	.	8g\J	.
!LO:LB:g=original	!	!	!	!	!	!	!	!	!	!	!	!	!	!	!	!	!LO:LB:g=original	!	!	!	!	!
=28	=28	=28	=28	=28	=28	=28	=28	=28	=28	=28	=28	=28	=28	=28	=28	=28	=28	=28	=28	=28	=28	=28
4A-\	-scen-	.	4A-\	-scen-	.	4A-\	-scen-	.	4AA-/	.	2r	.	2r	.	4AA-/	.	4A-\	.	4a-\	.	4a-\	.
8c\	-dit	.	8c\	-dit	.	8c\	-dit	.	4C/	.	.	.	.	.	8C/L	.	8c\L	.	8cc\L	.	8cc\L	.
8c\	de	.	8c\	de	.	8c\	de	.	.	.	.	.	.	.	8C/J	.	8c\J	.	8cc\J	.	8cc\J	.
!	!	!	!	!	!	!LO:SIC:l:s=cae-:v	!	!	!	!	!	!	!	!	!	!	!	!	!	!	!	!
(4B-\	Cae-	.	(4B-\	cae-	.	(4B-\	ce-	.	4BB-/	.	4r	.	4r	.	4BB-/	.	4B-\	.	4b-\	.	4b-\	.
4BB-/)	.	.	4A-\)	.	.	4d\)	.	.	4BB-/	.	4B-/	.	4f\	.	4BB-/	.	4B-\	.	4a-\	.	4dd\	.
=29	=29	=29	=29	=29	=29	=29	=29	=29	=29	=29	=29	=29	=29	=29	=29	=29	=29	=29	=29	=29	=29	=29
2E-\	-lis	.	2G/	-lis	.	2e-\	-lis	.	2E-\	.	2G/	.	2e-\	.	2E-\	.	2E-\	.	2g/	.	2ee-\	.
2r	.	.	2r	.	.	2r	.	.	2r	.	2r	.	2r	.	2r	.	2r	.	2r	.	2r	.
==	==;;	==	==;;	==	==	==;;	==	==	==;;	==	==;;	==	==;;	==	==;;	==	==;;	==	==;;	==	==;;	==
*-	*-	*-	*-	*-	*-	*-	*-	*-	*-	*-	*-	*-	*-	*-	*-	*-	*-	*-	*-	*-	*-	*-
!!!system-decoration: [(g1)][(g2)][(g3)]
!!!ENC:Anastazja Marusiak
!!!END:2020-07-01
!!!ENC:Anna Matuszewska
!!!END:2020-12-28
